symbols/web/upcoming/materialsymbolssharp/upcoming_wght300gradN25fill1_40px.svg

<svg xmlns="http://www.w3.org/2000/svg" height="40" width="40"><path d="m29.333 17.75-1.416-1.417 5.125-5.125 1.416 1.417ZM19 13.083V5.958h2v7.125Zm-8.333 4.667-5.125-5.125 1.416-1.417 5.125 5.125ZM4.25 34.083V21.417h9.917q.291 2.25 1.937 3.708Q17.75 26.583 20 26.583q2.292 0 3.938-1.458 1.645-1.458 1.895-3.708h9.917v12.666Z"/></svg>

<svg xmlns="http://www.w3.org/2000/svg" height="40" width="40"><path d="M29.333 17.75 27.917 16.333 33.042 11.208 34.458 12.625ZM19 13.083V5.958H21V13.083ZM10.667 17.75 5.542 12.625 6.958 11.208 12.083 16.333ZM4.25 34.083V21.417H14.167Q14.458 23.667 16.104 25.125Q17.75 26.583 20 26.583Q22.292 26.583 23.938 25.125Q25.583 23.667 25.833 21.417H35.75V34.083Z"/></svg>
